Origami/64x64/apps/popcorn-time.svg

<svg width="64" height="64" version="1.1" viewBox="0 0 64 64" xmlns="http://www.w3.org/2000/svg">
 <path d="m16 37c-2.216 0-4 1.888022-4 4.234376v16.765624c0 1.662 1.115 3 2.5 3h5.5 8 8 8 5.5c1.385 0 2.5-1.338 2.5-3v-16.765624c0-2.346352-1.784-4.234376-4-4.234376s-4 1.888024-4 4.234376v2.964842c0-2.3268-1.784-4.199218-4-4.199218s-4 1.872418-4 4.199218v1.085938c0-2.374286-1.784-4.285156-4-4.285156s-4 1.91087-4 4.285156v-1.085938c0-2.3268-1.784-4.199218-4-4.199218s-4 1.872418-4 4.199218v-2.964842c0-2.346352-1.784-4.234376-4-4.234376z" style="opacity:.2"/>
 <path d="M 38,5 A 16,16 0 0 0 23.203124,14.929688 8,8 0 0 0 18,13 8,8 0 0 0 10,21 8,8 0 0 0 11.652344,25.859376 7,7 0 0 0 8,32 a 7,7 0 0 0 7,7 7,7 0 0 0 1,-0.07812 L 16,41 c 0,3.324 2.676,6 6,6 l 20,0 c 3.324,0 6,-2.676 6,-6 l 0,-0.08204 A 7,7 0 0 0 49,41 7,7 0 0 0 56,34 7,7 0 0 0 52.417968,27.894532 16,16 0 0 0 54,21 16,16 0 0 0 38,5 Z" style="opacity:.2"/>
 <path d="M 38,4 A 16,16 0 0 0 23.203124,13.929688 8,8 0 0 0 18,12 8,8 0 0 0 10,20 8,8 0 0 0 11.652344,24.859376 7,7 0 0 0 8,31 a 7,7 0 0 0 7,7 7,7 0 0 0 1,-0.07812 L 16,40 c 0,3.324 2.676,6 6,6 l 20,0 c 3.324,0 6,-2.676 6,-6 l 0,-0.08204 A 7,7 0 0 0 49,40 7,7 0 0 0 56,33 7,7 0 0 0 52.417968,26.894532 16,16 0 0 0 54,20 16,16 0 0 0 38,4 Z" style="fill:#e6c59a"/>
 <path d="m38 30c0 3.313708-2.686292 6-6 6s-6-2.686292-6-6z" style="fill:#a81a1a"/>
 <circle cx="21" cy="26" r="4" style="fill:#3f3f3f"/>
 <circle cx="22.5" cy="24.5" r="1.5" style="fill:#ffffff"/>
 <path d="m48 36c-2.216 0-4 1.888942-4 4.235294v19.764706h5.5c1.385 0 2.5-1.338 2.5-3v-16.764706c0-2.346352-1.784-4.235294-4-4.235294z" style="fill:#e54b3f"/>
 <path d="m32 40c-2.216 0-4 1.911428-4 4.285714v15.714286h8v-15.714286c0-2.374286-1.784-4.285714-4-4.285714z" style="fill:#e54b3f"/>
 <path d="m40 39c-2.216 0-4 1.8732-4 4.2v16.8h8v-16.8c0-2.3268-1.784-4.2-4-4.2z" style="fill:#ffffff"/>
 <path d="m16 36c2.216 0 4 1.888942 4 4.235294v19.764706h-5.5c-1.385 0-2.5-1.338-2.5-3v-16.764706c0-2.346352 1.784-4.235294 4-4.235294z" style="fill:#e54b3f"/>
 <path d="m24 39c2.216 0 4 1.8732 4 4.2v16.8h-8v-16.8c0-2.3268 1.784-4.2 4-4.2z" style="fill:#ffffff"/>
 <circle cx="43" cy="26" r="4" style="fill:#3f3f3f"/>
 <circle cx="44.5" cy="24.5" r="1.5" style="fill:#ffffff"/>
 <path d="M 38 4 A 16 16 0 0 0 23.203125 13.929688 A 8 8 0 0 0 18 12 A 8 8 0 0 0 10 20 A 8 8 0 0 0 10.021484 20.417969 A 8 8 0 0 1 18 13 A 8 8 0 0 1 23.203125 14.929688 A 16 16 0 0 1 38 5 A 16 16 0 0 1 53.982422 20.652344 A 16 16 0 0 0 54 20 A 16 16 0 0 0 38 4 z M 11.177734 25.148438 A 7 7 0 0 0 8 31 A 7 7 0 0 0 8.0234375 31.457031 A 7 7 0 0 1 11.652344 25.859375 A 8 8 0 0 1 11.177734 25.148438 z M 52.753906 27.095703 A 16 16 0 0 1 52.417969 27.894531 A 7 7 0 0 1 55.976562 33.541016 A 7 7 0 0 0 56 33 A 7 7 0 0 0 52.753906 27.095703 z" style="fill:#ffffff;opacity:.2"/>
</svg>

<svg xmlns="http://www.w3.org/2000/svg" width="64" height="64" version="1.1" viewBox="0 0 64 64">
 <path style="opacity:0.2" d="m 16,37 c -2.216,0 -4,1.888022 -4,4.234376 L 12,58 c 0,1.662 1.115,3 2.5,3 l 5.5,0 8,0 8,0 8,0 5.5,0 C 50.885,61 52,59.662 52,58 L 52,41.234376 C 52,38.888024 50.216,37 48,37 c -2.216,0 -4,1.888024 -4,4.234376 l 0,2.964842 C 44,41.872418 42.216,40 40,40 c -2.216,0 -4,1.872418 -4,4.199218 l 0,1.085938 C 36,42.91087 34.216,41 32,41 c -2.216,0 -4,1.91087 -4,4.285156 l 0,-1.085938 C 28,41.872418 26.216,40 24,40 c -2.216,0 -4,1.872418 -4,4.199218 l 0,-2.964842 C 20,38.888024 18.216,37 16,37 Z"/>
 <path style="opacity:0.2" d="M 38,5 A 16,16 0 0 0 23.203124,14.929688 8,8 0 0 0 18,13 8,8 0 0 0 10,21 8,8 0 0 0 11.652344,25.859376 7,7 0 0 0 8,32 a 7,7 0 0 0 7,7 7,7 0 0 0 1,-0.07812 L 16,41 c 0,3.324 2.676,6 6,6 l 20,0 c 3.324,0 6,-2.676 6,-6 l 0,-0.08204 A 7,7 0 0 0 49,41 7,7 0 0 0 56,34 7,7 0 0 0 52.417968,27.894532 16,16 0 0 0 54,21 16,16 0 0 0 38,5 Z"/>
 <path style="fill:#e6c59a" d="M 38,4 A 16,16 0 0 0 23.203124,13.929688 8,8 0 0 0 18,12 8,8 0 0 0 10,20 8,8 0 0 0 11.652344,24.859376 7,7 0 0 0 8,31 a 7,7 0 0 0 7,7 7,7 0 0 0 1,-0.07812 L 16,40 c 0,3.324 2.676,6 6,6 l 20,0 c 3.324,0 6,-2.676 6,-6 l 0,-0.08204 A 7,7 0 0 0 49,40 7,7 0 0 0 56,33 7,7 0 0 0 52.417968,26.894532 16,16 0 0 0 54,20 16,16 0 0 0 38,4 Z"/>
 <path style="fill:#a81a1a" d="m 38,30 c 0,3.313708 -2.686292,6 -6,6 -3.313708,0 -6,-2.686292 -6,-6 z"/>
 <circle style="fill:#3f3f3f" cx="21" cy="26" r="4"/>
 <circle style="fill:#ffffff" cx="22.5" cy="24.5" r="1.5"/>
 <path style="fill:#e54b3f" d="m 48,36 c -2.216,0 -4,1.888942 -4,4.235294 L 44,60 49.5,60 C 50.885,60 52,58.662 52,57 L 52,40.235294 C 52,37.888942 50.216,36 48,36 Z"/>
 <path style="fill:#e54b3f" d="m 32,40 c -2.216,0 -4,1.911428 -4,4.285714 L 28,60 36,60 36,44.285714 C 36,41.911428 34.216,40 32,40 Z"/>
 <path style="fill:#ffffff" d="m 40,39 c -2.216,0 -4,1.8732 -4,4.2 l 0,16.8 8,0 0,-16.8 C 44,40.8732 42.216,39 40,39 Z"/>
 <path style="fill:#e54b3f" d="m 16,36 c 2.216,0 4,1.888942 4,4.235294 L 20,60 14.5,60 C 13.115,60 12,58.662 12,57 L 12,40.235294 C 12,37.888942 13.784,36 16,36 Z"/>
 <path style="fill:#ffffff" d="m 24,39 c 2.216,0 4,1.8732 4,4.2 L 28,60 20,60 20,43.2 C 20,40.8732 21.784,39 24,39 Z"/>
 <circle style="fill:#3f3f3f" cx="43" cy="26" r="4"/>
 <circle style="fill:#ffffff" cx="44.5" cy="24.5" r="1.5"/>
 <path style="opacity:0.2;fill:#ffffff" d="M 38 4 A 16 16 0 0 0 23.203125 13.929688 A 8 8 0 0 0 18 12 A 8 8 0 0 0 10 20 A 8 8 0 0 0 10.021484 20.417969 A 8 8 0 0 1 18 13 A 8 8 0 0 1 23.203125 14.929688 A 16 16 0 0 1 38 5 A 16 16 0 0 1 53.982422 20.652344 A 16 16 0 0 0 54 20 A 16 16 0 0 0 38 4 z M 11.177734 25.148438 A 7 7 0 0 0 8 31 A 7 7 0 0 0 8.0234375 31.457031 A 7 7 0 0 1 11.652344 25.859375 A 8 8 0 0 1 11.177734 25.148438 z M 52.753906 27.095703 A 16 16 0 0 1 52.417969 27.894531 A 7 7 0 0 1 55.976562 33.541016 A 7 7 0 0 0 56 33 A 7 7 0 0 0 52.753906 27.095703 z"/>
</svg>
